X:7218
T:the Pogo Stick
O:england
R:Mazurka
N:June 94
M:3/4
C:Andy Hornby
A:Lancaster
K:D
D EF|\
G2 dB AB|G2 dB GB|AB cA FA|GA BD EF|\
G2 dB AB|G2 dB GB|AB cD EF| G3 :|
|: B AG |\
F2 DF Ac|B2 GB dB|AG FE FD|GF GB AG|\
F2 DF Ac|B2 GB dB|AG FE FD|G3 :|
|: d Bd|\
cd Bd AD|Bd Ad GB|AG FE FD|GF Gd Bd|\
cd Bd Ad|Bd AD GB|AG FE FD|G3:|
W:Copyright (C) Andy Hornby


